!!!!SEGMENT: pl-wtm--a-43-186-99--001-005_fitelberg-grzegorz--szesc-piesni-op-22-no-5-plyna-nad-swiatem.krn
!!!cenid: 19xx:100
!!!COM: Fitelberg, Grzegorz
!!!COM-rismID: pe41023683
!!!CDT: 1879-1953
!!!CNT: Polish
!!!GTL: Sześć pieśni Op. 22
!!!OTL: No. 5. Płyną nad światem
!!!OMV: 005
!!!PDT:
!!!AGN: Secular; Song
!!!YEC: Copyright 2022 Narodowy Instytut Fryderyka Chopina (https://polishscores.org)
!!!YEM: License CC-BY-4.0 (https://creativecommons.org/licenses/by/4.0)
!!!SMS-siglum: PL-Wtm
!!!SMS-shelfmark: A-43.186/99
!!!SMS-variant:
!!!SMS-altvar:
!!!SMS-shelfwork: 001-005 G
!!!NIFC-rismSourceID: 1001135590
!!!NIFC-rismChildID: 1001135617
!!!NIFC-islandoraID: pl-wtm:4771
!!!URL-pdf-islandora: https://repozytorium.nifc.pl/islandora/object/pl-wtm%3A4771/datastream/PDF/view
!!!URL-scan: https://polish.musicsources.pl/pl/lokalizacje/galeria/druki-muzyczne/15759/7 @EN{Scan on Polish Music Sources Website} @PL{Skany w portalu Dziedzictwo Muzyki Polskiej w otwartym dostępie}
!!!IIIF:
!!!ONB-nifc:
!!!OMD: Andante tranquillo.
!!!AIN: 1 piano 1 vox
!!!key: G
**kern	**kern	**dynam	**kern	**text	**text	**dynam
*part2	*part2	*part2	*part1	*part1	*part1	*part1
*staff3	*staff2	*	*staff1	*staff1	*staff1	*
*ICklav	*ICklav	*	*ICvox	*	*	*
*Ipiano	*Ipiano	*	*Ivox	*	*	*
*I"Klavier	*I"Klavier	*	*I"Singstimme.	*	*	*
*clefF4	*clefG2	*	*clefG2	*	*	*
*k[]	*k[]	*	*k[]	*	*	*
*G:	*G:	*	*G:	*	*	*
*M3/4	*M3/4	*	*M3/4	*	*	*
!	!	!	!	!	!	!LO:DY:a
(>(>[8DD-X/	8r	.	8r	.	.	pp
=1	=1	=1	=1	=1	=1	=1
*	*^	*	*	*	*	*
8DD-/]) 8AA-X	(4gg-X/ 4bb-X	2cc\	pp	4ee-X\	Ü-	Pły-	.
!LO:TX:a:i:t=dolcissimo	!	!	!	!	!	!	!
[4A-X\	.	.	.	.	.	.	.
.	4ff/ 4aan	.	.	4cc\	-ber	.	.
[4D-X\ 4A-]	.	.	.	.	.	.	.
.	4ff-X/ 4aa-X	4cc-X\	.	4cc-X\	die	.	.
8D-\_ [8An	.	.	.	.	.	.	.
=2	=2	=2	=2	=2	=2	=2	=2
8D-\L_ 8A]	4ee-X/ 4gg	2.b-X\	.	2b-X\	Welt	-ną	.
8D-\_ 8B-X	.	.	.	.	.	.	.
8D-\J] [8en	[<4dd/ 4ff#X	.	.	.	.	.	.
4C~<\) 4e]	.	.	.	.	.	.	.
.	4dd/]) 4ff##X	.	.	4een\	hin	nad	.
([8EEE/	.	.	.	.	.	.	.
=3	=3	=3	=3	=3	=3	=3	=3
!	!	!	!	!	!	!	!LO:HP:a
8EEE/]	(2g#X/ 2ee 2gg#X	4dd#X\	pp	4dd#X\	zie-	świa-	<
4EE/	.	.	.	.	.	.	.
.	.	4ddn\	.	4ddn\	-hen	-tem	.
4E\	.	.	.	.	.	.	.
.	[<4c#X/ [4a [4cc#X	4g#X\	.	4cc#X\	die	o-	[[
[8e\	.	.	.	.	.	.	.
=4	=4	=4	=4	=4	=4	=4	=4
!	!	!	!	!	!	!	!LO:HP:a
8e\]	4c#/] 4a] 4cc#]	4gn\	.	4ee\	Wol-	-bło-	>
4EEE/	.	.	.	.	.	.	.
.	2G/ 2cn 2g	4B-\	.	4e/	-ken.	-ki,	.
4EE/	.	.	.	.	.	.	.
.	.	4A\	.	4r	.	.	]
[8E\	.	.	.	.	.	.	.
*	*clefF4	*	*	*	*	*	*
!!LO:LB:g=original
=5	=5	=5	=5	=5	=5	=5	=5
!	!	!	!	!	!	!	!LO:HP:a
8E\]	2BBn/ 2E 2Bn	4A-X\	.	4b\	Grün	swia-	<
*clefG2	*	*	*	*	*	*	*
4e/	.	.	.	.	.	.	.
.	.	4G\)	.	4b#X\	durch	-tłem	.
4ee\)	.	.	.	.	.	.	.
.	4r	4ryy	.	4cc#X\	die	zie-	[[
*clefF4	*	*	*	*	*	*	*
(>(>[8EE/	.	.	.	.	.	.	.
*	*clefG2	*	*	*	*	*	*
=6	=6	=6	=6	=6	=6	=6	=6
!	!	!	!	!	!	!	!LO:HP:a
8EE/]) 8BB	(4aa/ 4ccc#X	2dd#X\	.	2dd#X\	Wäl-	-lo-	>
[4B\	.	.	.	.	.	.	.
.	4aa-X/ 4cccn	.	.	.	.	.	.
4E\ 4B]	.	.	.	.	.	.	.
.	4gg/ 4bb	4ddn\	.	4ddn\	-der	-nem	]]
[8E\ [8c	.	.	.	.	.	.	.
=7	=7	=7	=7	=7	=7	=7	=7
8E\L_ 8c]	4gg-X/ 4bb-X	2.dd-X\	<	2dd-X\	fliesst	sy-	.
8E\_ 8d-X	.	.	.	.	.	.	.
8E\J] [8g	[<4ff/ 4aa	.	.	.	.	.	.
4E-X\) 4g]	.	.	.	.	.	.	.
.	4ff/]) 4aa#X	.	.	4ee-X\	ihr	-cą	.
([8GGG/	.	.	[[	.	.	.	.
=8	=8	=8	=8	=8	=8	=8	=8
8GGG/]	(2bn/ 2gg 2bbn	4ff#X\	pp	2gg\	Licht	las.	.
4GG/	.	.	.	.	.	.	.
.	.	4ffn\	.	.	.	.	.
4G\	.	.	.	.	.	.	.
.	[<4e/ [4cc [4ee	4b\	.	4r	.	.	.
[8g\	.	.	.	.	.	.	.
=9	=9	=9	=9	=9	=9	=9	=9
8g\]	4e/] 4cc] 4ee]	4b-X\	.	4r	.	.	.
4GGG/	.	.	.	.	.	.	.
!	!	!	!	!	!	!	!LO:HP:a
.	2B-X/ 2e-X 2b-X	4d-X\	.	4ee-X\	Herz,	Ja-	>
4GG/	.	.	.	.	.	.	.
.	.	4c\	.	4b-X\	ver-	-ki	.
[8G\	.	.	.	.	.	.	.
*	*clefF4	*	*	*	*	*	*
!!LO:LB:g=original
=10	=10	=10	=10	=10	=10	=10	=10
8G\]	2BB/ 2G 2d	4c-X\	.	2dd\	-giss!	raj!	]
*clefG2	*	*	*	*	*	*	*
8g/	.	.	.	.	.	.	.
4dd#X\)	.	4B-X\)	.	.	.	.	.
*	*clefG2	*	*	*	*	*	*
8r	4ryy	4ee\	.	4r	.	.	.
*clefF4	*	*	*	*	*	*	*
(>(>[8GG/	.	.	.	.	.	.	.
=11	=11	=11	=11	=11	=11	=11	=11
8GG/]) 8D	(4ccc/ 4eee	2ff#X\	.	4r	.	.	.
[4d\	.	.	.	.	.	.	.
.	4ccc-X/ 4eee-X	.	.	4r	.	.	.
[4G\ 4d]	.	.	.	.	.	.	.
.	4bb-X/ 4ddd	4ffn\	.	4g/	In	Ko-	.
8G\_ [8d#X	.	.	.	.	.	.	.
=12	=12	=12	=12	=12	=12	=12	=12
8G\L_ 8d#]	4aa/ 4ccc#X	2.ee\	<	(4g/	stil-	-ją-	.
8G\_ 8e	.	.	.	.	.	.	.
8G\J] [8a#X	[<4gg#X/ 4bb#X	.	.	4f#X/)	.	.	.
4F#X~<\) 4a#]	.	.	.	.	.	.	.
.	4gg#/]) 4ccc#	.	.	4f#/	-ler	-cy	.
(([8BB/	.	.	[[	.	.	.	.
=13	=13	=13	=13	=13	=13	=13	=13
8BB\]) 8F#X	(4eee/ 4ggg#X	2aa#X\	pp	4.g#X/	Son-	czar	.
*clefG2	*	*	*	*	*	*	*
[>4f#X/	.	.	.	.	.	.	.
.	4eee-X/ 4gggn	.	.	.	.	.	.
[4B/ 4f#]	.	.	.	8a#X/	-ne	.	.
.	4ddd/ 4fff#X	4aan\	.	4b\	weht	od	.
8B/_ [8g	.	.	.	.	.	.	.
=14	=14	=14	=14	=14	=14	=14	=14
!	!	!	!	!	!	!	!LO:HP:a
8B/L_ 8g]	4ddd-X/ 4fffn	2.aa-X\	<	4cc#X\	lin-	słoń-	<
8B/_ 8a-X	.	.	.	.	.	.	.
8B/J] [8dd	[<4ccc/ 4eee	.	.	4dd\	-dernd-	.	.
4B-X~/) 4dd]	.	.	.	.	.	.	.
.	4ccc/]) 4fff	.	.	4dd\	-ster	-ca	[[
*clefF4	*	*	*	*	*	*	*
(8DD/	.	.	[	.	.	.	.
*	*v	*v	*	*	*	*	*
!!LO:PB:g=original
=15	=15	=15	=15	=15	=15	=15
*clefG2	*	*	*	*	*	*
!	!	!LO:DY:t=sempre pp e dolcissimo	!	!	!	!LO:HP:a
(8c/) 8d 8f#X 8cc	(4ff#X\ 4ccc 4fff#X	pp	2ee\	Zau-	pły-	>
4B/ [>4d [>4f# 4b	.	.	.	.	.	.
.	4cc#X\ 4ccc#X	.	.	.	.	.
4B-X/ 4d] 4f#] 4b-X	.	.	.	.	.	.
.	4dd\ 4ddd	.	4dd\	-ber,	-nie,	]
[8A/ [8c [8d [8a	.	.	.	.	.	.
=16	=16	=16	=16	=16	=16	=16
8A/] 8c_ 8d_ 8a]	4g#X\ [>4cc [>4dd 4gg#X	.	4r	.	.	.
4Gn/ 4c_< 4d_< 4gn	.	.	.	.	.	.
.	4g#\ 4cc] 4dd] 4aa	.	4.a/	un-	wiew	.
4F#X/ 4c] 4d] 4f#X	.	.	.	.	.	.
.	4fn\ 4a 4cc 4ffn	<	.	.	.	.
*clefF4	*	*	*	*	*	*
8E\) 8A 8c 8e	.	.	8b-X\	-ter	pa-	.
=17	=17	=17	=17	=17	=17	=17
*^	*^	*	*	*	*	*
(2c-X~/ 2e-X	[2.E-X\ [2.A-X	[<2.f~/ [2.ff	(>2cc-\ 2ee-	[	4cc-X\	we-	-chną-	.
.	.	.	.	.	4dd-X\	-hen-	-cy	.
[4B-X/ [4d	.	.	[4b-X\) [>4dd	>	4ddn\	-den	od	.
=18	=18	=18	=18	=18	=18	=18	=18	=18
!	!	!	!	!	!	!	!	!LO:HP:a
4B-/] 4d]	2E-\] 2A-]	2f/] 2ff]	((4b-\] 4dd]	.	2ee-X\	Blu-	gę-	<
4c-X/) 4e-X	.	.	4cc-X\))) 4ee-X	]	.	.	.	.
8r	4ryy	4r	4ryy	.	4ff\	-men	-stwy	[
((8DD/	.	.	.	.	.	.	.	.
*v	*v	*	*	*	*	*	*	*
*	*v	*v	*	*	*	*	*
*clefG2	*	*	*	*	*	*
!!LO:LB:g=original
=19	=19	=19	=19	=19	=19	=19
!	!	!	!	!	!	!LO:HP:a
8c/) 8d 8f#X 8cc	(4ff#X\ 4cccn 4fff#X	.	4ff#X\	blüht	kwia-	>
(4B/ [>4d [>4f# 4b	.	.	.	.	.	.
.	4cc#X\ 4ccc#X	.	4.een\	tau-	.	.
4B-X/) 4d] 4f#] 4b-X	.	.	.	.	.	.
.	4dd\ 4ddd	.	.	.	.	.
[8A/ [8c [8d [8a	.	.	8ddn\	-send	-tów	]]
=20	=20	=20	=20	=20	=20	=20
*	*	*	*^	*	*	*
8A/] 8c_ 8d_ 8a]	4g#X\ [4cc [4dd 4gg#X	.	4dd/	2.dd\	Trost.	i-	.
4Gn/ 4c_ 4d_< 4gn	.	.	.	.	.	.	.
.	4a\ 4cc] 4dd] 4aa	.	4dd/	.	.	-dzie.	.
4F#X/ 4c] 4d] 4f#X	.	.	.	.	.	.	.
.	4fn\ 4a 4cc 4ffn	<	4r	.	.	.	.
*clefF4	*	*	*	*	*	*	*
8E\ 8A 8c 8e	.	.	.	.	.	.	.
*	*	*	*v	*v	*	*	*
=21	=21	=21	=21	=21	=21	=21
*^	*^	*	*	*	*	*
4c-X/ 4e-X	[2.E-X~\ [2.A-X	[<2.f~/ [2.ff	4cc-X\ 4ee-X	[	4r	.	.	.
2B-X/ 2d	.	.	2b-X\ 2dd	>	4r	.	.	.
!	!	!	!	!	!	!	!	!LO:HP:a
.	.	.	.	.	4a-X/	Ver-	To-	<[
=22	=22	=22	=22	=22	=22	=22	=22	=22
!	!	!	!	!	!	!	!	!LO:HP:a
4c-X/ 4e-X	2.E-\] 2.A-]	4f/]) 4ff]	4cc-X\ 4ee-X	]	2a-X/	-giss!	-raj!	>
2cn/)	.	(4en/ 4een	2ccn\	<	.	.	.	]
.	.	4f/ 4ff	.	[	4r	.	.	.
!!LO:LB:g=original
=23	=23	=23	=23	=23	=23	=23	=23	=23
(>4c#X/	[2.E-X\ [2.An	[<2.f#X/ [<2.an [>2.ff#X	(>4cc#X\	.	4r	.	.	.
!	!	!	!	!	!	!	!	!LO:HP:a
(>2B#X/)	.	.	(>2b#X\)	>	4r	.	.	<
.	.	.	.	]]	4an/	Ver-	To-	[[
=24	=24	=24	=24	=24	=24	=24	=24	=24
!	!	!	!	!	!	!	!	!LO:HP:a
2c#X/)	2E-\] 2A]	4f#/]) 4ff#]	2.a\]) 2.cc#X	<	2a/	-giss!	-raj!	>
.	.	(4e#X/ 4ee#X	.	.	.	.	.	]
8r	4ryy	4f#X\ 4ff#X	.	.	4r	.	.	.
(>[8EEE-X/	.	.	.	[[	.	.	.	.
*v	*v	*	*	*	*	*	*	*
=25	=25	=25	=25	=25	=25	=25	=25
8EEE-/]	4ryy	4g\ 4dd-X 4ee-X 4gg	pp	4r	.	.	.
4EE-X/	.	.	.	.	.	.	.
.	2c/ 2a-X 2cc	(4g\	.	4r	.	.	.
4E-X\	.	.	.	.	.	.	.
.	.	[4g-X\	.	4ee-X\	Aus	Ra-	.
[8e-X\	.	.	.	.	.	.	.
=26	=26	=26	=26	=26	=26	=26	=26
!	!	!	!	!	!	!	!LO:HP:a
4e-\])	2.c-X/ 2.a 2.cc-X	4g-\])	.	2cc-X\	fer-	-do-	<
4r	.	4f\	.	.	.	.	.
4r	.	4e-X\	.	4dd-X\	-nem	-sną	[[
=27	=27	=27	=27	=27	=27	=27	=27
!	!	!	!	!	!	!	!LO:HP:a
4r	[<2.B-X/) [2.g [2.b-X	(<2.e--\	.	2.ddn\	Grund	dzwo-	>
(4EEE-X/	.	.	.	.	.	.	.
4EE-X/	.	.	.	.	.	.	.
!!LO:LB:g=original
=28	=28	=28	=28	=28	=28	=28	=28
4E-X\	2B-/] 2g] 2b-]	2d-X\)	.	[2.ee-X\	pfeift,	.	]]
4e-X\)	.	.	.	.	.	.	.
((>[4AAA-X/	4r	4ryy	pp	.	.	.	.
=29	=29	=29	=29	=29	=29	=29	=29
8AAA-/]) 8EE-X	(4dd-X/ 4ff	2g\	.	2.ee-\]	.	-ni	.
[4E-X\	.	.	.	.	.	.	.
.	4cc/ 4een	.	.	.	.	.	.
[4AA-X/ 4E-]	.	.	.	.	.	.	.
.	4cc-X/ 4ee-X	4g-X\	.	.	.	.	.
8AA-/_ [8En	.	.	.	.	.	.	.
=30	=30	=30	=30	=30	=30	=30	=30
!	!	!	!LO:HP:t=molto cresc.	!	!	!	!LO:HP:a
8AA-\L_ 8E]	4b-X/ 4dd	2.f\	<	(4dd\	horch,	pie-	<
8AA-\_ 8F	.	.	.	.	.	.	.
8AA-\J] [8Bn	[<4a/ 4cc#X	.	.	4cc#X\)	.	.	.
4GG\) 4B]	.	.	.	.	.	.	.
!	!	!	!	!	!	!	!LO:HP:a
.	4a/]) 4cc##X	.	.	4dd\	ein	-snią	<
(8BBB/	.	.	f	.	.	.	[[
*	*v	*v	*	*	*	*	*
=31	=31	=31	=31	=31	=31	=31
.	(16qqd#X~</LL	[	.	.	.	.
.	16qqa/	.	.	.	.	.
.	16qqdd#X/	.	.	.	.	.
.	[16qqdd#/	.	.	.	.	.
!	!LO:TX:b:i:t=molto espress.	!	!	!	!	!
.	[16qqaa/JJ	.	.	.	.	.
*Xtuplet	*	*	*	*	*	*
!	!	!	!	!	!	!LO:DY:a
!	!	!	!	!	!	!LO:HP:a
12BB\L	((2.dd#\]) 2.aa_ 2.ddd#X	.	2ff#X\	Vo-	pta-	f >
12F#X\	.	.	.	.	.	.
12A\J	.	.	.	.	.	.
*clefG2	*	*	*	*	*	*
12d#X/L	.	.	.	.	.	.
12f#X/	.	.	.	.	.	.
[12a/J	.	.	.	.	.	.
4a\_) [4dd#X	.	.	[4b\	-gel	.	.
!!LO:PB:g=original
=32	=32	=32	=32	=32	=32	=32
*^	*^	*	*	*	*	*
2a/] 2dd#]	8r	[<2.cc#X\)) [2.ccc#X	(<2aa\]	.	2b\]	.	-szek.	]
*clefF4	*	*	*	*	*	*	*	*
.	(>8BB\L	.	.	.	.	.	.	.
.	8A\	.	.	.	.	.	.	.
.	8d#X\J	.	.	<	.	.	.	.
*clefG2	*	*	*	*	*	*	*	*
4a-X/	4ryy	.	4aa-X\)	.	4r	.	.	.
*	*	*v	*v	*	*	*	*	*
=33	=33	=33	=33	=33	=33	=33	=33
2gn/)	4r	2.cc#\_ [2.ggn 2.ccc#_	[ > ]]	2.r	.	.	.
*clefF4	*	*	*	*	*	*	*
.	(4BB/	.	.	.	.	.	.
!	!LO:TX:a:i:t=rit.	!	!	!	!	!	!
4ryy	4A\	.	.	.	.	.	.
*v	*v	*	*	*	*	*	*
=34	=34	=34	=34	=34	=34	=34
*	*^	*	*	*	*	*
4d#X\	2cc#\] 2gg] 2ccc#]	2ryy	.	2.r	.	.	.
4a\)	.	.	.	.	.	.	.
16r	4r	[4g\	p	.	.	.	.
(16BB-X\LL	.	.	.	.	.	.	.
16A\	.	.	.	.	.	.	.
[16dn\JJ	.	.	.	.	.	.	.
*	*v	*v	*	*	*	*	*
=35	=35	=35	=35	=35	=35	=35
*M4/4	*M4/4	*	*M4/4	*	*	*
*	*^	*	*	*	*	*
!LO:TX:t=P:problem=mixed beam	!LO:TX:b:i:t=molto espress.	!	!	!	!	!	!
8dn\L]	(2cc/	(4g\]	.	4r	.	.	.
8BBB-X/	.	.	.	.	.	.	.
!	!	!	!	!	!	!	!LO:DY:a:rj
8A\	.	2.f#X\)	.	4f#X/	Er	O	p
[8d\J	.	.	.	.	.	.	.
!	!	!	!	!	!	!	!LO:HP:a
8d\L]	4cc#X/	.	.	4cc#X\	singt	szczę-	<
[8c#X\J	.	.	.	.	.	.	.
16c#\LL])	4dd/	.	.	4dd\	sein	-ściu	[[
(16BB-X\	.	.	.	.	.	.	.
16A-X\	.	.	.	.	.	.	.
16cn\JJ	.	.	.	.	.	.	.
!!LO:LB:g=original
=36	=36	=36	=36	=36	=36	=36	=36
*^	*	*	*	*	*	*	*
*	*	*	*	*^	*	*	*	*
!	!	!	!	!	!	!	!	!	!LO:HP:a
2f/	8fn\L	4ee-X/	(2ee-\	<	.	(2ee-X\	Lied,	ma-	>
.	8A-X\	.	.	.	.	.	.	.	.
.	8f\	2een/	.	.	.	.	.	.	.
.	[>8a-X\J	.	.	.	.	.	.	.	.
4ryy	16a-\LL])	.	2dd\)	.	.	2dd\)	.	-rząc,	]
.	(16cc-X~\	.	.	.	.	.	.	.	.
.	16f\	.	.	.	.	.	.	.	.
.	16c-X\JJ)	.	.	.	.	.	.	.	.
*tuplet	*	*	*	*	*	*	*	*	*
!LO:TUP:b	!	!	!	!	!LO:DY:b=2	!	!	!	!
24r	4ryy	4ff/)	.	.	f	.	.	.	.
(24AAAn/LL	.	.	.	.	.	.	.	.	.
24AAn/	.	.	.	.	.	.	.	.	.
24G/	.	.	.	.	.	.	.	.	.
24B-X/	.	.	.	.	.	.	.	.	.
24c#X/JJ	.	.	.	[[	.	.	.	.	.
*	*	*	*	*v	*v	*	*	*	*
=37	=37	=37	=37	=37	=37	=37	=37	=37
2f#X~/	8f#\L	(4ff#X/	(1cc#X	f	4r	.	.	.
.	8B-X\	.	.	.	.	.	.	.
!	!	!	!	!	!	!	!	!LO:HP:a
.	8g\	2gg/	.	>	4cc#X\	das	on	<
.	8b-X\J	.	.	.	.	.	.	.
4fn~/	4f\	.	.	.	4.b\	Lied	śpie-	[
4e~/	16e\LL	[4gg#X/	.	.	.	.	.	.
.	16AA\	.	.	.	.	.	.	.
.	[16G\	.	.	.	8a/	vom	-wa	>
.	16G\JJ_ [>16A	.	.	.	.	.	.	.
*v	*v	*	*	*	*	*	*	*
!!LO:LB:g=original
=38	=38	=38	=38	=38	=38	=38	=38
2G~\_ 2A_ 2d#X	4gg#/]	2b#X\	.	2.a;/	Glück!	wciąż!	]
.	2aa;/)	.	.	.	.	.	.
4G;\]) 4A] 4e	.	4cc#X;>\)	] pp	.	.	.	.
16r	4r	[4fn\	.	4r	.	.	.
(16AA-X\LL	.	.	.	.	.	.	.
16G\	.	.	.	.	.	.	.
[16cn\JJ	.	.	.	.	.	.	.
=39	=39	=39	=39	=39	=39	=39	=39
!LO:TX:t=P:problem=mixed beam	!	!	!	!	!	!	!
8c\L]	(2b-X/	(4f\]	.	1r	.	.	.
8AAA-X/	.	.	.	.	.	.	.
8G\	.	2.en\)	.	.	.	.	.
[8c\J	.	.	.	.	.	.	.
8c\L]	4bn/	.	.	.	.	.	.
[8Bn\J	.	.	.	.	.	.	.
16B\LL])	4cc/	.	.	.	.	.	.
(16AA-X\	.	.	.	.	.	.	.
16G-X\	.	.	.	.	.	.	.
16B-X\JJ	.	.	.	.	.	.	.
=40	=40	=40	=40	=40	=40	=40	=40
*^	*	*	*	*	*	*	*
*	*	*	*	*^	*	*	*	*
2e-X/	8e-\L	4dd-X/	(2dd-\	<	.	2r	.	.	.
.	8G-X\	.	.	.	.	.	.	.	.
.	8e-\	2ddn/	.	.	.	.	.	.	.
.	[>8g-X\J	.	.	.	.	.	.	.	.
!	!	!	!	!	!	!	!	!	!LO:DY:a
!	!	!	!	!	!	!	!	!	!LO:HP:a
4ryy	16g-\LL])	.	2cc\)	.	.	2cc\	Vom	O	p <
.	(16b--~\	.	.	.	.	.	.	.	.
.	16e-\	.	.	.	.	.	.	.	.
.	16B--\JJ)	.	.	.	.	.	.	.	.
!LO:TUP:b	!	!	!	!	!LO:DY:b=2:rj	!	!	!	!
24r	4ryy	4ee-X/)	.	.	mf	.	.	.	.
(24GGGn/LL	.	.	.	.	.	.	.	.	.
24GGn/	.	.	.	.	.	.	.	.	.
24F/	.	.	.	.	.	.	.	.	.
24A-X/	.	.	.	.	.	.	.	.	.
24Bn/JJ	.	.	.	[[	.	.	.	.	[[
*	*	*	*	*v	*v	*	*	*	*
!!LO:LB:g=original
=41	=41	=41	=41	=41	=41	=41	=41	=41
!	!	!	!	!	!	!	!	!LO:HP:a
2en~/	8e\L	(4een/	(1bn	[ >	(1a-X	Glück.	szczę-	>]
.	8A-X\	.	.	.	.	.	.	.
.	8f\	2ff/	.	.	.	.	.	.
.	8a-X\J	.	.	.	.	.	.	.
4e-X~/	4e-\	.	.	.	.	.	.	.
4d~/	16d\LL	[4ff#X/	.	.	.	.	.	.
.	16GG\	.	.	.	.	.	.	.
.	[16F\	.	.	.	.	.	.	.
.	16F\JJ_ [>16G	.	.	.	.	.	.	.
*v	*v	*	*	*	*	*	*	*
=42	=42	=42	=42	=42	=42	=42	=42
2F~\_ 2G_ 2c#X	4ff#/]	2a#X\	.	2.g/)	.	-ściu	.
.	2gg/)	.	.	.	.	.	.
8.F\L)] 8.G] 8.d	.	4b\)	.	.	.	.	.
(16G\Jk	.	.	]	.	.	.	.
*clefG2	*	*	*	*	*	*	*
[16f/LL	4r	4ryy	pp	4r	.	.	.
16f/_ [<16g	.	.	.	.	.	.	.
16f/_ 16g_ [<16a#X	.	.	.	.	.	.	.
16f/JJ_ 16g_ 16a#_ [16cc#X	.	.	.	.	.	.	.
*	*v	*v	*	*	*	*	*
=43	=43	=43	=43	=43	=43	=43
!	!LO:TX:b:i:t=dolce e morendo	!	!	!	!	!
4.f/]) 4.g] 4.a#] 4.cc#]	((4ff#X\ 4aa#X 4fff#X	.	1r	.	.	.
.	2gg\)) 2ggg	.	.	.	.	.
(>8G/	.	.	.	.	.	.
[12f/L	.	.	.	.	.	.
12f/_ [<12g	.	.	.	.	.	.
12f/J_ 12g_> [12b	.	.	.	.	.	.
!	!LO:TUP:a	!	!	!	!	!
4f/_< 4g_> 4b_ [4dd	12r	.	.	.	.	.
.	([<12gg\L	>	.	.	.	.
.	12gg\J_ [12bb	.	.	.	.	.
=44	=44	=44	=44	=44	=44	=44
1f;]) 1g] 1b] 1dd]	1gg;]) 1bb] 1ggg	]]	1r;	.	.	.
==	==	==	==	==	==	==
*-	*-	*-	*-	*-	*-	*-
!!!system-decoration: s1{(s2,s3)}
!!!RDF**kern: < = below
!!!RDF**kern: > = above
!!!ENC: Andrzej Gręziak
!!!END: 2023-10-10
!!!EED: Marta Chmielewska
!!!EEV: 2023-10-22
